X: 65
M:C|
L:1/8
K:G
u(GF)|(DG)GF G2 G_B|A=FcF dFcF|(D=F)FE F2 (FG)|AFcF dFcF|
|:u[G2G,2]|[G3G,3] g gfga|_bgag bgag|F3 =f {g}fefg|afgf afgf|


